images/no-sim.svg

<?xml version="1.0" encoding="UTF-8" standalone="no"?>
<!-- Created with Inkscape (http://www.inkscape.org/) -->

<svg
   xmlns:dc="http://purl.org/dc/elements/1.1/"
   xmlns:cc="http://creativecommons.org/ns#"
   xmlns:rdf="http://www.w3.org/1999/02/22-rdf-syntax-ns#"
   xmlns:svg="http://www.w3.org/2000/svg"
   xmlns="http://www.w3.org/2000/svg"
   xmlns:inkscape="http://www.inkscape.org/namespaces/inkscape"
   version="1.1"
   width="30"
   height="30"
   viewBox="0 0 30 30"
   id="svg2">
  <metadata
     id="metadata10">
    <rdf:RDF>
      <cc:Work
         rdf:about="">
        <dc:format>image/svg+xml</dc:format>
        <dc:type
           rdf:resource="http://purl.org/dc/dcmitype/StillImage" />
      </cc:Work>
    </rdf:RDF>
  </metadata>
  <defs
     id="defs8" />
  <path
     d="m 26,20.9 c -1.1,0 -2,0.9 -2,2 0,1.1 0.9,2 2,2 1.1,0 2,-0.9 2,-2 0,-1 -0.9,-2 -2,-2 z m 1.4,-2.6 0.4,-10.7 h -3.4 l 0.4,10.7 h 2.6 z M 3.9,1 C 2.8,1 2,1.9 2,3 v 23.9 c 0,1.1 0.9,2 1.9,2 h 14 c 1.1,0 2,-0.9 2,-2 V 5.8 L 15.1,1 H 3.9 z M 6,27 H 5.5 C 4.6,27 3.9,26.3 3.9,25.4 V 14.6 C 3.9,13.7 4.6,13 5.5,13 H 6 v 14 z m 4,-7.9 H 8 V 21 h 2 v 6 H 7.1 V 13 H 10 v 6.1 z M 14,27 H 11.1 V 21 H 14 v 6 z m 0,-7.9 H 11.1 V 13 H 14 v 6.1 z m 3.9,-4.5 v 10.8 c 0,0.9 -0.7,1.6 -1.6,1.6 H 15 V 13 h 1.3 c 0.9,0 1.6,0.7 1.6,1.6 z"
     inkscape:connector-curvature="0"
     id="path4" />
</svg>

<?xml version="1.0" encoding="utf-8"?>
<!-- Generator: Adobe Illustrator 17.1.0, SVG Export Plug-In . SVG Version: 6.00 Build 0)  -->
<!DOCTYPE svg PUBLIC "-//W3C//DTD SVG 1.1//EN" "http://www.w3.org/Graphics/SVG/1.1/DTD/svg11.dtd">
<svg version="1.1" id="Layer_1" xmlns="http://www.w3.org/2000/svg" xmlns:xlink="http://www.w3.org/1999/xlink" x="0px" y="0px"
	 viewBox="0 0 30 30" enable-background="new 0 0 30 30" xml:space="preserve">
<g>
	<g>
		<path fill-rule="evenodd" clip-rule="evenodd" d="M26,20.9c-1.1,0-2,0.9-2,2c0,1.1,0.9,2,2,2c1.1,0,2-0.9,2-2
			C28,21.9,27.1,20.9,26,20.9z M27.4,18.3l0.4-10.7h-3.4l0.4,10.7H27.4z M3.9,1C2.8,1,2,1.9,2,3v23.9c0,1.1,0.9,2,1.9,2h14
			c1.1,0,2-0.9,2-2V5.8L15.1,1H3.9z M6,27H5.5c-0.9,0-1.6-0.7-1.6-1.6V14.6c0-0.9,0.7-1.6,1.6-1.6H6V27z M10,19.1h-2V21h2v6H7.1V13
			H10V19.1z M14,27h-2.9v-6H14V27z M14,19.1h-2.9V13H14V19.1z M17.9,14.6v10.8c0,0.9-0.7,1.6-1.6,1.6h-1.3V13h1.3
			C17.2,13,17.9,13.7,17.9,14.6z"/>
	</g>
</g>
</svg>
